X:1
T: Piper Frap
T: 48S 3C
P: Piper Frap
C: arr. T. Traub 1-3-2004
R: Strathspey
M: 4/4
K: F
L: 1/8
d>B|"F"A<c c2 F<A A2|"F"C2 F>C D>C D<F|"Gm"G2 G2 A<G G2|"Bb"d>c d>e "C"f>d c>B|
"F"A<c c2 F<A A2|"F"C>D F>G A>F A<c|"Bb"d>f e<g f>d "C"c>B|"F"A2 F2 F2 ||
c>B|"F"A<c f2 d>c d<f|"F"F2 c>F d>c A<F|"Gm"A>G G2 A>G A<c|"C"d>c d>e f>d c>B|
"F"A<c f2 d>c d<f|"F"F2 c>F d>c A<F|"Bb"d>f e<g "C"f>d c>B|"F"A2 F2 F2 |]
